!!!COM: Palestrina, Giovanni Perluigi da
!!!OPR: Missa Sanctorum meritis
!!!OMD: Credo
!!!OTL: Et in Spiritum
**kern	**kern	**kern	**kern
*Ibass	*Itenor	*Icalto	*Icant
!Bassus	!Tenor	!Altus	!Cantus
*clefF4	*clefGv2	*clefG2	*clefG2
*k[]	*k[]	*k[]	*k[]
*E:phr	*E:phr	*E:phr	*E:phr
*M4/2	*M4/2	*M4/2	*M4/2
=156	=156	=156	=156
1A	0r	0r	0r
2A	.	.	.
[2A	.	.	.
=157	=157	=157	=157
2A]	0r	1e	0r
2G	.	.	.
2A	.	2e	.
[2c	.	[2e	.
=158	=158	=158	=158
2c]	0r	2e]	0r
2B	.	2d	.
4A	.	2e	.
4G	.	.	.
4F	.	[2f	.
4E	.	.	.
=159	=159	=159	=159
2D	0r	2f]	1a
2C#	.	2e	.
1D	.	2d	2a
.	.	2c	[2a
=160	=160	=160	=160
1E	1r	2B	2a]
.	.	2e	2g
[1F	1A	2c	1a
.	.	[2f	.
=161	=161	=161	=161
1F]	2A	4f]	1.cc
.	.	8e	.
.	.	8d	.
.	1A	4c	.
.	.	4d	.
1E	.	2.e	.
.	2G	.	2b
.	.	8d	.
.	.	8e	.
=162	=162	=162	=162
0r	2A	2f	2a
.	1c	2e	4g
.	.	.	4f
.	.	1d	2.g
.	2B	.	.
.	.	.	8a
.	.	.	8b
=163	=163	=163	=163
1r	2A	2r	2cc
.	2G	1e	2b
2r	1F	.	2.a
[2A	.	2d	.
.	.	.	4b
=164	=164	=164	=164
2A]	1E	2e	2cc
2G	.	2g	2b
2A	1r	4f	2r
.	.	4e	.
2c	.	4e	[2a
.	.	8d	.
.	.	8c	.
=165	=165	=165	=165
1B	1r	1d	2a]
.	.	.	2g
2.A	2r	1e	2a
.	[2A	.	[2cc
8G	.	.	.
8F	.	.	.
=166	=166	=166	=166
1E	2A]	[0e	2cc]
.	2G	.	2.b
1r	2A	.	.
.	.	.	4a
.	2c	.	[2a
=167	=167	=167	=167
1.E	2.B	1e]	2a]
.	.	.	4g
.	4A	.	4f
.	4B	1r	2g
.	4c	.	.
2D	2d	.	2f
=168	=168	=168	=168
2E	2c	2r	2.e
2G	2B	1e	.
.	.	.	8f
.	.	.	8g
2F	2r	.	1a
2F	[2A	2d	.
=169	=169	=169	=169
1E	2A]	2e	0r
.	2G	2g	.
2D	2A	2f	.
2C	2c	2e	.
=170	=170	=170	=170
1D	2B	2.d	2r
.	2A	.	1a
.	.	4c	.
1E	2.e	2B	.
.	.	[2e	2g
.	4d	.	.
=171	=171	=171	=171
1AA	4c	2e]	2a
.	4B	.	.
.	2A	2c	2cc
1r	2G	2.d	2b
.	2F	.	2a
.	.	8c	.
.	.	8d	.
=172	=172	=172	=172
0r	2E	4e	2g
.	.	4d	.
.	2.A	4c	2f
.	.	4B	.
.	.	4c	2e
.	4G	4B	.
.	2F	2A	[2a
=173	=173	=173	=173
2r	1E	0B	2a]
1E	.	.	4g#
.	.	.	4f#
.	1r	.	1g#
2E	.	.	.
=174	=174	=174	=174
1F	2r	1A	1a
.	1A	.	.
2.D	.	1r	1r
.	2A	.	.
4C	.	.	.
=175	=175	=175	=175
2D	1B	0r	0r
2.E	.	.	.
.	2.G	.	.
4D	.	.	.
2C	.	.	.
.	4F	.	.
=176	=176	=176	=176
2BB	2G	0r	1r
2AA	2A	.	.
1E	2A	.	1b
.	2G#	.	.
=177	=177	=177	=177
1AA	1.A	1e	1cc
2.D	.	1f	2.a
.	[2d	.	.
4E	.	.	4g
=178	=178	=178	=178
2F#	2d]	2.d	2a
2G	2B	.	2b
.	.	4c	.
2G	2B	2d	2.g
2E	2c	2e	.
.	.	.	8f#
.	.	.	8g
=179	=179	=179	=179
0F	1A	1c	0a
.	2A	1d	.
.	2A	.	.
=180	=180	=180	=180
1E	1B	1e	2.g#
.	.	.	4a
2r	2.G	1B	1b
[2E	.	.	.
.	4F#	.	.
=181	=181	=181	=181
2E]	2G	2c	0r
2F	2A	2.A	.
2.D	2.F	.	.
.	.	4G	.
.	.	2A	.
4C	4E	.	.
=182	=182	=182	=182
2D	2F	2B	0r
1E	2.G	2c	.
.	.	2B	.
.	4F	.	.
2C	2E	[2A	.
=183	=183	=183	=183
1BB	2.D	2A]	1r
.	.	2G#	.
.	4E	.	.
2AA	1F	1A	2r
[2A	.	.	[2cc
=184	=184	=184	=184
2A]	1E	1.e	2cc]
2G#	.	.	2b
2A	2r	.	2cc
2E	[2c	2e	2g
=185	=185	=185	=185
2F	2c]	2d	2a
2G	2B	2d	4g
.	.	.	4f
[1C	2c	1g	2e
.	2G	.	2e
=186	=186	=186	=186
1C]	2A	4c	4e
.	.	4d	4f
.	4G	4e	4g
.	4F	4f	4a
1r	2E	2g	4b
.	.	.	4cc
.	2D	2f	[2dd
=187	=187	=187	=187
0r	1A	2e	4dd]
.	.	.	4cc
.	.	4d	1cc
.	.	4c	.
.	1G	1d	.
.	.	.	2b
=188	=188	=188	=188
2r	2C	0e	2cc
2C	2c	.	2g
2E	2c	.	2g
2E	2B	.	2g
=189	=189	=189	=189
1F	4A	1c	1a
.	4B	.	.
.	4c	.	.
.	4d	.	.
2C	1e	2c	2g
2E	.	2c	2e
=190	=190	=190	=190
2.D	2A	1d	2.f
.	2A	.	.
4D	.	.	4f
1AA	2.A	2c	1e
.	.	2A	.
.	4A	.	.
=191	=191	=191	=191
2r	2E	1.B	2r
2E	2e	.	2g
2E	2e	.	2g
2E	2e	2B	2g
=192	=192	=192	=192
2.F	2c	2A	2.a
.	2A	2c	.
4F	.	.	4a
2C	1e	2c	2g
2E	.	2c	2e
=193	=193	=193	=193
2.D	1A	2.d	2.f
4D	.	4d	4f
1AA	2.A	2c	2e
.	.	2A	2a
.	4A	.	.
=194	=194	=194	=194
2r	1E	2B	2a
2E	.	2B	2g#
2.F	2r	1A	1a
.	2A	.	.
4F	.	.	.
=195	=195	=195	=195
2F	2.c	0r	0r
2E	.	.	.
.	4c	.	.
2F	2c	.	.
2G	2B	.	.
=196	=196	=196	=196
1A	2c	1r	2r
.	2c	.	2e
1D	1d	2r	2.f
.	.	2A	.
.	.	.	4f
=197	=197	=197	=197
2r	1A	2.c	2f
1A	.	.	2e
.	.	4c	.
.	1r	2c	2f
2G	.	2B	2g
=198	=198	=198	=198
2F	2r	2c	1a
2D	1d	2d	.
1A	.	1e	1a
.	2c	.	.
=199	=199	=199	=199
1D	2B	1d	2r
.	2A	.	1a
1r	1B	2r	.
.	.	[2d	2g
=200	=200	=200	=200
1r	1A	2d]	2f
.	.	2c	2e
2r	1r	2B	2g
[2A	.	2A	2f
=201	=201	=201	=201
2A]	1r	2c	2e
2G	.	2B	2g
2F	2r	2A	4a
.	.	.	4b
2E	[2G	2e	4cc
.	.	.	8b
.	.	.	8a
=202	=202	=202	=202
2G	2G]	2.d	2b
2F	2A	.	2.a
.	.	8c	.
.	.	8d	.
2E	2B	1e	.
.	.	.	4g
2C	2c	.	[2g
=203	=203	=203	=203
1D	1A	1d	2g]
.	.	.	2f#
2E	[1G	2r	[1g
[2C	.	[2e	.
=204	=204	=204	=204
2C]	1G]	2e]	0g]
2BB	.	2d	.
4C	2r	1e	.
4D	.	.	.
4E	[2c	.	.
4F	.	.	.
=205	=205	=205	=205
1G	2c]	1d	2r
.	2B	.	1g
1A	1c	2r	.
.	.	[2c	2f
=206	=206	=206	=206
1G	1d	2c]	1g
.	.	2B	.
1r	1c	2c	2e
.	.	2A	2f
=207	=207	=207	=207
0r	0r	2B	2g
.	.	2c	2a
.	.	2d	2b
.	.	2e	[2cc
=208	=208	=208	=208
0r	2F	2f	2cc]
.	2G	2d	2b
.	2A	2c	2a
.	2B	2d	2g
=209	=209	=209	=209
0r	2c	2e	4a
.	.	.	4g
.	2d	1d	4f
.	.	.	4e
.	2B-	.	4f
.	.	.	4g
.	2c	[2c	2e
=210	=210	=210	=210
1r	1G	2c]	1d
.	.	2B	.
[1A	1c	1c	2e
.	.	.	2a
=211	=211	=211	=211
1A]	2r	2r	1cc
.	2c	1e	.
1c	1e	.	[1g
.	.	[2c	.
=212	=212	=212	=212
1G	2d	2c]	1g]
.	2d	4B	.
.	.	4A	.
2E	2.e	4B	1r
.	.	8A	.
.	.	8B	.
[2A	.	2c	.
.	4d	.	.
=213	=213	=213	=213
2A]	2c	2A	1e
2G	2B	2B	.
2F	2A	2c	[1a
2F	2A	2d	.
=214	=214	=214	=214
1E	1B	2e	2a]
.	.	2e	2g
4D	2r	2A	2f
4E	.	.	.
4F	2A	[2a	2f
4G	.	.	.
=215	=215	=215	=215
4A	1c	2a]	2.e
4B	.	.	.
1c	.	2.g	.
.	.	.	8d
.	.	.	8c
.	1G	.	2d
.	.	4f	.
2B	.	2d	[2g
=216	=216	=216	=216
1c	2E	2.e	4g]
.	.	.	4e
.	1A	.	2.cc
.	.	4d	.
1r	.	2c	.
.	.	.	4a
.	2G	[2d	[2b
=217	=217	=217	=217
1r	2F	4d]	4b]
.	.	4c	4a
.	2F	2A	1a
2r	1E	1B	.
2E	.	.	2g#
=218	=218	=218	=218
2.F	2r	1A	2a
.	1A	.	2a
4G	.	.	.
1A	.	1r	1cc
.	[2c	.	.
=219	=219	=219	=219
1.E	2c]	2r	1g
.	4B	2e	.
.	4A	.	.
.	2B	1g	1e
2C	2c	.	.
=220	=220	=220	=220
2D	1F	1d	1.a
2D	.	.	.
2E	2r	2B	.
2C	2E	[2e	2g
=221	=221	=221	=221
1D	1.A	2e]	2f
.	.	2d	2f
4AA	.	2c	2e
4BB	.	.	.
4C	2A	2c	4e
4D	.	.	4f
=222	=222	=222	=222
1E	2G	1B	4g
.	.	.	4a
.	2E	.	2.g
1C	1G	1c	.
.	.	.	4f
.	.	.	[2e
=223	=223	=223	=223
2D	1F	1A	2e]
2.A	.	.	2d
.	1E	1B	1e
4G#	.	.	.
2G#	.	.	.
=224	=224	=224	=224
1A	2r	2.c	1e
.	2.A	.	.
.	.	4d	.
1E	.	[1e	1b
.	4G#	.	.
.	2G#	.	.
=225	=225	=225	=225
0AA	2.A	0e]	2.cc
.	4B	.	4b
.	1c	.	1a
=226	=226	=226	=226
0E	0B	0e	0g#
==	==	==	==
*-	*-	*-	*-
!!!CDT: 1525/^1526/-1594/2/2
!!!OCY: Italia
!!!AGN: Mass (Paraphrase)
!!!AST: renaissance, vocal
!!!ASW: Hymn
!!!PWK: Masses, Book 7
!!!RNB: Cadence finals: A,C
!!!YOR: Le Opere Complete, v. 23, p. 30
!!!YOO: Rome, Italy: Fratelli Scalera
!!!END: 1992//
!!!EED: John Miller
!!!YEC: Copyright 2000, John Miller
!!!YEN: United States of America
!!!YEM: Rights to all derivative electronic formats reserved.
!!!YEM: Refer to licensing agreement for further details.
!!!YEM: This file must be accompanied by the licensing agreement.
!!!YEM: A copy of the licensing agreement may be found at http://www.music-cog.ohio-state.edu/HumdrumDatabases/Palestrina/license.txt
!!!EMD: converted to Humdrum by Bret Aarden
